X: 1
T: Major Konstant's
M: 4/4
L: 1/8
R: reel
K: Dmaj
G2Bc ~d3e|cA~A2 cAdB|G2Bc dBed|cAFA cdcA|
G2Bc ~d3e|cA~A2 cdeg|fdec dAFD|Eded cAFA:|
|:Ggge ~d3e|ceae fBBA|Ggge degb|^gaAB cdAF|
=Ggge ~d3e|cA~A2 cdeg|fdec dAFD|Eded cAFA:|
